status/symbolic/audio-volume-medium-symbolic.svg

<?xml version="1.0" encoding="UTF-8" standalone="no"?>
<svg
   height="16"
   width="16"
   version="1.1"
   id="svg10"
   xmlns="http://www.w3.org/2000/svg"
   xmlns:svg="http://www.w3.org/2000/svg">
  <defs
     id="defs14" />
  <path
     id="path453"
     style="font-variation-settings:normal;vector-effect:none;fill:#555761;fill-opacity:1;stroke:none;stroke-width:4;stroke-linecap:round;stroke-linejoin:round;stroke-miterlimit:4;stroke-dasharray:none;stroke-dashoffset:0;stroke-opacity:1;-inkscape-stroke:none;stop-color:#000000"
     d="m 12.498047,2.5 c -0.414214,0 -0.75,0.3357864 -0.75,0.75 -1.18e-4,0.1188218 0.028,0.2359712 0.08203,0.3417969 C 12.588509,4.9372688 12.987404,6.4554898 12.988281,8 c -8.77e-4,1.5445102 -0.399772,3.062731 -1.158203,4.408203 -0.05403,0.105826 -0.08215,0.222975 -0.08203,0.341797 0,0.414214 0.335786,0.75 0.75,0.75 0.259823,-8.08e-4 0.500719,-0.136034 0.636719,-0.357422 l 0.0039,0.002 C 14.022442,11.573959 14.486583,9.8021499 14.486328,8 14.486583,6.19785 14.022442,4.4260404 13.138672,2.8554688 l -0.0039,0.00195 C 12.998766,2.6360343 12.75787,2.5008076 12.498047,2.5 Z M 7,3 C 6.7385489,3 6.5020349,3.1005314 6.3242188,3.2636719 L 3,6 H 2 C 1.4460006,6 1,6.4460006 1,7 v 2 c 0,0.5539994 0.4460006,1 1,1 h 1 l 3.3457031,2.753906 c 0.00629,0.0055 0.011153,0.01228 0.017578,0.01758 l 0.023438,0.01758 C 6.5559519,12.920481 6.76818,13 7,13 7.5539994,13 8,12.553999 8,12 V 4 C 8,3.4460006 7.5539994,3 7,3 Z m 3.332031,1 C 9.9178181,4 9.5820312,4.3357864 9.5820312,4.75 c 7.953e-4,0.1183201 0.029574,0.2347734 0.083984,0.3398438 l -0.00391,0.00195 C 10.206708,5.964083 10.495653,6.9716659 10.496094,8 c -4.41e-4,1.0283341 -0.289386,2.035917 -0.8339846,2.908203 l 0.00391,0.002 c -0.05441,0.105071 -0.083189,0.221524 -0.083984,0.339844 0,0.414214 0.3357867,0.75 0.7499996,0.75 0.236412,7.69e-4 0.459347,-0.109975 0.601563,-0.298828 l 0.0059,0.0039 C 11.632676,10.593611 12.000119,9.30993 12,8 12.000119,6.6900699 11.632676,5.4063888 10.939453,4.2949219 l -0.0059,0.00391 C 10.791378,4.1099747 10.568443,3.9992308 10.332031,4 Z" />
</svg>

<svg
        xmlns='http://www.w3.org/2000/svg'
        xmlns:svg='http://www.w3.org/2000/svg'
        id='svg10'
        width='16'
        height='16'>
  <path
          id='path453'
          fill='url(#gpa:foreground) #555761'
          fill-opacity='1'
          fill-rule='nonzero'
          stroke='none'
          stroke-opacity='1'
          stroke-width='4'
          stroke-linecap='round'
          stroke-linejoin='round'
          stroke-miterlimit='4'
          stroke-dasharray='none'
          stroke-dashoffset='0'
          d='M 12.498 2.5 C 12.0838 2.5, 11.748 2.83579, 11.748 3.25 C 11.7479 3.36882, 11.776 3.48597, 11.8301 3.5918 C 12.5885 4.93727, 12.9874 6.45549, 12.9883 8 C 12.9874 9.54451, 12.5885 11.0627, 11.8301 12.4082 C 11.776 12.514, 11.7479 12.6312, 11.748 12.75 C 11.748 13.1642, 12.0838 13.5, 12.498 13.5 C 12.7579 13.4992, 12.9988 13.364, 13.1348 13.1426 L 13.1387 13.1446 C 14.0224 11.574, 14.4866 9.80215, 14.4863 8 C 14.4866 6.19785, 14.0224 4.42604, 13.1387 2.85547 L 13.1348 2.85742 C 12.9988 2.63603, 12.7579 2.50081, 12.498 2.5 Z M 7 3 C 6.73855 3, 6.50203 3.10053, 6.32422 3.26367 L 3 6 L 2 6 C 1.446 6, 1 6.446, 1 7 L 1 9 C 1 9.554, 1.446 10, 2 10 L 3 10 L 6.3457 12.7539 C 6.35199 12.7594, 6.35686 12.7662, 6.36328 12.7715 L 6.38672 12.7891 C 6.55595 12.9205, 6.76818 13, 7 13 C 7.554 13, 8 12.554, 8 12 L 8 4 C 8 3.446, 7.554 3, 7 3 Z M 10.332 4 C 9.91782 4, 9.58203 4.33579, 9.58203 4.75 C 9.58283 4.86832, 9.61161 4.98477, 9.66602 5.08984 L 9.66211 5.09179 C 10.2067 5.96408, 10.4957 6.97167, 10.4961 8 C 10.4957 9.02833, 10.2067 10.0359, 9.66211 10.9082 L 9.66602 10.9102 C 9.61161 11.0153, 9.58283 11.1317, 9.58204 11.25 C 9.58204 11.6643, 9.91782 12, 10.332 12 C 10.5684 12.0008, 10.7914 11.8901, 10.9336 11.7012 L 10.9395 11.7051 C 11.6327 10.5936, 12.0001 9.30993, 12 8 C 12.0001 6.69007, 11.6327 5.40639, 10.9395 4.29492 L 10.9336 4.29883 C 10.7914 4.10997, 10.5684 3.99923, 10.332 4 Z'
          class="foreground">
  </path>
</svg>
